X: 160047
T: Pint o' Plain
N: 059
C: BB
R: hornpipe
Q: 1/8=330
M: C|
L: 1/8
K: D
D|"D"FAdc "G"B2gf|"A7"(3efg ec "D"d3A|"G"BAGB "D"ADFA|"Bm7" dBAF "A"E2 AG |
"D"FAdc "G"B2gf|"A7"eage "Bm"f3g|"D7"afd=c "G"BGBd|"A"(3cde cA "D"d3 :|
z|"G"gfed "A"cdec|"Bm"dBcB "A7"AGFE|"D"DFAd "Bm"faba|"G"gBcd "A"e2 ef|
"G"gfed "A"cdec|"D"dAAF "A7"GFEC|"D"DFAd "Em"BGEG|"A"(3FGA EC "D"D3 :|
